swiss/communes/0853.svg

<?xml version="1.0" encoding="UTF-8" standalone="no"?>
<svg
   xmlns:dc="http://purl.org/dc/elements/1.1/"
   xmlns:cc="http://web.resource.org/cc/"
   xmlns:rdf="http://www.w3.org/1999/02/22-rdf-syntax-ns#"
   xmlns:svg="http://www.w3.org/2000/svg"
   xmlns="http://www.w3.org/2000/svg"
   xmlns:xlink="http://www.w3.org/1999/xlink"
   xmlns:sodipodi="http://sodipodi.sourceforge.net/DTD/sodipodi-0.dtd"
   xmlns:inkscape="http://www.inkscape.org/namespaces/inkscape"
   height="763"
   width="603"
   version="1.0"
   id="svg20"
   sodipodi:version="0.32"
   inkscape:version="0.44.1"
   sodipodi:docname="Rüschegg-coat of arms.svg"
   sodipodi:docbase="F:\Mis Documentos\Mis imágenes\Encyclopédie\Escudos de Suiza">
  <metadata
     id="metadata31">
    <rdf:RDF>
      <cc:Work
         rdf:about="">
        <dc:format>image/svg+xml</dc:format>
        <dc:type
           rdf:resource="http://purl.org/dc/dcmitype/StillImage" />
        <dc:date>07-AUG-2006</dc:date>
        <dc:creator>
          <cc:Agent>
            <dc:title>Jérôme BLUM (wagner51)</dc:title>
          </cc:Agent>
        </dc:creator>
        <cc:license
           rdf:resource="http://creativecommons.org/licenses/GPL/2.0/" />
        <dc:coverage />
        <dc:description>Gabarit pour le Projet:Blasons de WIkipédia</dc:description>
        <dc:subject>
          <rdf:Bag>
            <rdf:li>blason suisse modèle gabarit projet blasons</rdf:li>
          </rdf:Bag>
        </dc:subject>
        <dc:language>fr</dc:language>
        <dc:title>Gabrit d'un blason suisse</dc:title>
      </cc:Work>
      <cc:License
         rdf:about="http://creativecommons.org/licenses/GPL/2.0/">
        <cc:permits
           rdf:resource="http://web.resource.org/cc/Reproduction" />
        <cc:permits
           rdf:resource="http://web.resource.org/cc/Distribution" />
        <cc:requires
           rdf:resource="http://web.resource.org/cc/Notice" />
        <cc:permits
           rdf:resource="http://web.resource.org/cc/DerivativeWorks" />
        <cc:requires
           rdf:resource="http://web.resource.org/cc/ShareAlike" />
        <cc:requires
           rdf:resource="http://web.resource.org/cc/SourceCode" />
      </cc:License>
    </rdf:RDF>
  </metadata>
  <defs
     id="defs29">
    <linearGradient
       id="linearGradient2893">
      <stop
         style="stop-color:#ffffff;stop-opacity:0.3137255;"
         offset="0"
         id="stop2895" />
      <stop
         id="stop2897"
         offset="0.19"
         style="stop-color:#ffffff;stop-opacity:0.25098041;" />
      <stop
         style="stop-color:#6b6b6b;stop-opacity:0.1254902;"
         offset="0.60000002"
         id="stop2901" />
      <stop
         style="stop-color:#000000;stop-opacity:0.1254902;"
         offset="1"
         id="stop2899" />
    </linearGradient>
    <linearGradient
       id="linearGradient2955">
      <stop
         style="stop-color:white;stop-opacity:0;"
         offset="0"
         id="stop2965" />
      <stop
         style="stop-color:black;stop-opacity:0.64583331;"
         offset="1"
         id="stop2959" />
    </linearGradient>
    <radialGradient
       inkscape:collect="always"
       xlink:href="#linearGradient2893"
       id="radialGradient3236"
       gradientUnits="userSpaceOnUse"
       gradientTransform="matrix(1.215027,1.531577e-24,1.464684e-23,1.266667,-839.1924,-490.4894)"
       cx="858.04236"
       cy="579.93323"
       fx="858.04236"
       fy="579.93323"
       r="300" />
  </defs>
  <sodipodi:namedview
     inkscape:window-height="682"
     inkscape:window-width="1024"
     inkscape:pageshadow="2"
     inkscape:pageopacity="0.0"
     guidetolerance="10.0"
     gridtolerance="10.0"
     objecttolerance="10.0"
     borderopacity="1.0"
     bordercolor="#666666"
     pagecolor="#ffffff"
     id="base"
     inkscape:zoom="0.48301887"
     inkscape:cx="499.42538"
     inkscape:cy="387.65674"
     inkscape:window-x="-4"
     inkscape:window-y="-4"
     inkscape:current-layer="layer2"
     showgrid="true" />
  <desc
     id="desc22">Coat of Arms of Canton of Freiburg (Fribourg)</desc>
  <g
     inkscape:groupmode="layer"
     id="layer1"
     inkscape:label="Fond écu"
     sodipodi:insensitive="true">
    <path
       id="path1899"
       d="M 1.5,1.49998 L 1.5,460.3679 C 1.5,626.6785 135.81456,761.5 301.49999,761.5 C 467.18543,761.5 601.5,626.6785 601.5,460.3679 L 601.5,1.49998 L 1.5,1.49998 z "
       style="fill:#fcef3c;fill-opacity:1" />
  </g>
  <g
     inkscape:groupmode="layer"
     id="layer2"
     inkscape:label="Meubles"
     sodipodi:insensitive="true">
    <g
       id="g40525"
       transform="matrix(4.103342,0,0,4.103342,-2631.98,-1203.108)">
      <path
         sodipodi:nodetypes="ccccccccccccccccc"
         id="path2825"
         d="M 663.89412,299.8122 C 661.98991,317.2587 662.70931,318.33904 650.32407,325.89335 C 661.26603,333.8278 664.95965,329.93999 670.59404,322.83971 C 665.27697,331.92176 663.60766,339.77271 646.40577,343.04525 C 653.86673,350.95691 660.34856,351.39268 669.16893,345.21122 C 662.79543,352.13958 661.05034,360.03647 644.62294,364.86096 C 651.37895,378.92563 670.40334,374.04234 676.49219,360.48044 C 672.04484,369.04064 663.91454,382.03132 643.07646,385.51443 C 644.45845,393.65693 671.96567,408.50136 684.91419,376.23829 C 721.65823,397.8832 731.64469,365.71751 729.22344,363.55548 C 702.85926,371.3983 698.62071,361.67807 685.73185,357.08294 C 712.28054,370.28605 720.44359,352.3244 719.34743,344.79392 C 709.17013,346.61339 700.17556,350.97084 683.60574,340.1587 C 688.85106,344.83514 701.68309,341.04326 706.55941,328.38179 C 687.46905,333.38797 684.31919,327.33307 672.38966,322.09248 C 679.00464,324.66367 685.23192,325.76094 689.92313,316.39891 C 673.03082,311.9697 673.76323,312.11418 663.89412,299.8122 z "
         style="fill:#5ab532;fill-opacity:1;fill-rule:evenodd;stroke:black;stroke-width:0.86896831;stroke-linecap:butt;stroke-linejoin:miter;stroke-miterlimit:4;stroke-dasharray:none;stroke-opacity:1" />
      <path
         sodipodi:nodetypes="cccccccccsc"
         id="path3712"
         d="M 681.4471,363.32769 C 697.74915,371.75678 698.16509,406.66548 711.56045,432.41985 C 722.59836,459.12867 760.913,405.08233 760.85431,448.12308 C 745.21758,426.87387 734.58765,458.74921 712.16866,444.89424 C 723.34017,453.16038 759.12745,450.28461 736.50798,466.9741 C 740.10204,450.93672 716.7916,463.41216 709.86133,453.74114 C 712.22329,462.56226 700.56887,458.10316 698.5103,468.9653 C 683.9372,461.16766 703.87801,454.01136 701.2582,447.13966 C 697.25969,467.06787 675.8107,445.37785 670.25917,456.61473 C 669.79133,428.27019 699.41137,461.41065 697.39969,435.53382 C 696.30615,421.46736 684.13727,382.30642 681.4471,363.32769 z "
         style="fill:#e20909;fill-opacity:1;fill-rule:evenodd;stroke:black;stroke-width:0.86896831;stroke-linecap:butt;stroke-linejoin:miter;stroke-miterlimit:4;stroke-dasharray:none;stroke-opacity:1" />
      <path
         sodipodi:nodetypes="ccccc"
         id="path4599"
         d="M 680.51153,357.27481 C 679.46869,363.39071 673.70945,372.53462 668.02263,377.47267 L 689.33358,382.2919 L 701.9158,368.81716 C 692.62065,366.38813 685.43256,361.43733 680.51153,357.27481 z "
         style="fill:#5ab532;fill-opacity:1;fill-rule:evenodd;stroke:black;stroke-width:0.86896831;stroke-linecap:butt;stroke-linejoin:miter;stroke-miterlimit:4;stroke-dasharray:none;stroke-opacity:1" />
      <path
         sodipodi:nodetypes="ccccc"
         id="path4601"
         d="M 676.78948,342.38104 C 676.96029,345.33379 673.84122,353.28374 667.00402,357.73292 L 683.12585,363.15628 L 692.88875,351.82469 C 684.09875,350.62074 679.83089,346.52586 676.78948,342.38104 z "
         style="fill:#5ab532;fill-opacity:1;fill-rule:evenodd;stroke:black;stroke-width:0.86896831;stroke-linecap:butt;stroke-linejoin:miter;stroke-miterlimit:4;stroke-dasharray:none;stroke-opacity:1" />
      <path
         sodipodi:nodetypes="ccccc"
         id="path4603"
         d="M 672.06052,328.3744 C 671.11494,333.01117 671.1005,339.62185 666.20449,343.7887 L 678.30043,348.52434 L 685.95367,338.09327 C 680.68759,337.96568 676.43055,332.48656 672.06052,328.3744 z "
         style="fill:#5ab532;fill-opacity:1;fill-rule:evenodd;stroke:black;stroke-width:0.86896831;stroke-linecap:butt;stroke-linejoin:miter;stroke-miterlimit:4;stroke-dasharray:none;stroke-opacity:1" />
      <path
         sodipodi:nodetypes="ccccc"
         id="path4605"
         d="M 668.48375,314.13225 C 668.70233,319.92989 666.10191,322.32063 662.27689,326.48659 L 673.23835,332.76034 C 675.4848,329.5222 677.55147,325.61461 679.53705,321.40503 C 675.35261,319.45193 672.64469,319.8468 668.48375,314.13225 z "
         style="fill:#5ab532;fill-opacity:1;fill-rule:evenodd;stroke:black;stroke-width:0.86896831;stroke-linecap:butt;stroke-linejoin:miter;stroke-miterlimit:4;stroke-dasharray:none;stroke-opacity:1" />
      <path
         sodipodi:nodetypes="ccccscccccccccccccc"
         id="path36979"
         d="M 744.48242,294.38672 C 740.72832,302.97377 695.73767,320.45664 740,363 C 739.16283,368.99648 741.59672,379.7133 720,403 L 712.41211,404.03516 C 713.671,389.17799 707.04795,388.45613 702.97518,390.17873 C 701.0739,390.98289 699.7284,392.31977 700,393 C 701.38329,393.22216 703.44302,399.84492 698.62305,400.15332 C 699.32246,403.20735 696.72046,402.66918 702.30005,408.64059 L 713.31212,435.78151 C 724.13874,431.37318 727.30894,429.17709 740,418 L 736.63574,428 C 744.35676,425.06573 749.15689,415.31605 755,408 L 754.74121,418.85938 C 761.1358,412.67156 764.02761,405.60806 767.84668,398.77637 L 767.92969,408.77637 C 779.41491,399.13515 778.64873,385.99353 781.11816,373.77637 C 748.09533,345.37364 788.78862,333.78328 787.96222,333 L 788.00749,293.94955 L 744.48242,294.38672 z "
         style="fill:black;fill-opacity:1;fill-rule:evenodd;stroke:black;stroke-width:1px;stroke-linecap:butt;stroke-linejoin:miter;stroke-opacity:1" />
      <path
         sodipodi:nodetypes="cccccccccc"
         id="path37866"
         d="M 685,403 C 679.95535,395.7155 664.47211,403.49213 672.58789,417.01756 C 673.47576,411.04131 679.66614,410.13068 682.07031,411.10547 C 672.12262,413.96464 673.75722,424.78839 677.60546,430.221 C 680.99622,421.282 685.28018,422.64766 687.58789,422.22363 C 682.70993,422.28009 668.44996,442.29063 697.3291,441.96484 C 699.85087,437.82344 697.71688,434.6132 697.07031,431.10546 C 686.7771,432.28099 686.76903,426.37423 689.48242,421.70605 C 684.37922,417.92678 685.70869,413.37318 687.07032,411.70606 C 684.11709,408.78882 683.12448,405.22742 685,403 z "
         style="fill:black;fill-opacity:1;fill-rule:evenodd;stroke:black;stroke-width:1px;stroke-linecap:butt;stroke-linejoin:miter;stroke-opacity:1" />
      <path
         sodipodi:nodetypes="cccccccccsssccc"
         id="path38753"
         d="M 694.44651,428.88356 L 705.77637,428 C 700.55697,421.84352 698.80576,421.8675 693.7569,420.41681 C 694.52623,417.81281 697.44248,418.53532 701.29395,418.77637 C 699.4438,412.30357 694.57636,411.50746 691.32982,410.4612 C 692.07226,408.09 695.73492,409.40651 699.22363,409.55273 C 696.79628,405.42693 693.80648,402.98843 690,403 C 692.05844,399.2085 695.07522,398.75267 699.17654,398.36598 C 700.97344,396.31674 699.77389,395.40585 698.44727,392.74121 C 694.08213,391.67277 690.76534,393.10973 690,398 C 689.82552,399.11484 690.44936,401.52619 689.9876,402.6583 C 689.67245,403.43098 688.2593,402.73389 687.58789,403.69336 C 686.65064,405.03272 684.64841,406.77992 688.56295,410.96688 C 686.99102,415.75457 687.97729,419.53026 691.34104,421.09246 C 689.25038,424.81442 688.72453,428.06457 694.44651,428.88356 z "
         style="fill:black;fill-opacity:1;fill-rule:evenodd;stroke:black;stroke-width:1px;stroke-linecap:butt;stroke-linejoin:miter;stroke-opacity:1" />
    </g>
  </g>
  <g
     inkscape:groupmode="layer"
     id="layer3"
     inkscape:label="Reflet final"
     style="display:inline"
     sodipodi:insensitive="true">
    <path
       style="fill:url(#radialGradient3236);fill-opacity:1"
       d="M 1.5,1.5 L 1.5,460.3679 C 1.5,626.67854 135.81454,761.5 301.49993,761.5 C 467.1854,761.5 601.5,626.67854 601.5,460.3679 L 601.5,1.5 L 1.5,1.5 z "
       id="path2346" />
  </g>
  <g
     inkscape:groupmode="layer"
     id="layer4"
     inkscape:label="Contour final"
     style="display:inline"
     sodipodi:insensitive="true">
    <path
       style="fill:none;fill-opacity:1;stroke:#000000;stroke-width:3;stroke-miterlimit:4;stroke-dasharray:none;stroke-opacity:1"
       d="M 1.5,1.5 L 1.5,460.36794 C 1.5,626.67854 135.81454,761.5 301.49993,761.5 C 467.1854,761.5 601.5,626.67854 601.5,460.36794 L 601.5,1.5 L 1.5,1.5 z "
       id="path3239" />
  </g>
</svg>

<svg xmlns="http://www.w3.org/2000/svg" xmlns:xlink="http://www.w3.org/1999/xlink" height="763" width="603" version="1.0"><defs><radialGradient xlink:href="#a" id="b" gradientUnits="userSpaceOnUse" gradientTransform="matrix(1.21503 0 0 1.26667 -839.192 -490.49)" cx="858.042" cy="579.933" fx="858.042" fy="579.933" r="300"/><linearGradient id="a"><stop style="stop-color:#fff;stop-opacity:.3137255" offset="0"/><stop offset=".19" style="stop-color:#fff;stop-opacity:.25098041"/><stop style="stop-color:#6b6b6b;stop-opacity:.1254902" offset=".6"/><stop style="stop-color:#000;stop-opacity:.1254902" offset="1"/></linearGradient></defs><path d="M1.5 1.5v458.868c0 166.31 134.315 301.132 300 301.132s300-134.822 300-301.132V1.5H1.5z" style="fill:#fcef3c;fill-opacity:1"/><path d="M663.894 299.812c-1.904 17.447-1.185 18.527-13.57 26.081 10.942 7.935 14.636 4.047 20.27-3.053-5.317 9.082-6.986 16.933-24.188 20.205 7.46 7.912 13.943 8.348 22.763 2.166-6.374 6.929-8.119 14.825-24.546 19.65 6.756 14.065 25.78 9.181 31.87-4.38-4.448 8.56-12.578 21.55-33.417 25.033 1.382 8.143 28.89 22.987 41.838-9.276 36.744 21.645 46.73-10.52 44.31-12.683-26.365 7.843-30.603-1.877-43.492-6.472 26.549 13.203 34.712-4.759 33.615-12.29-10.177 1.82-19.171 6.178-35.741-4.634 5.245 4.676 18.077.884 22.953-11.777-19.09 5.006-22.24-1.049-34.17-6.29 6.616 2.572 12.843 3.669 17.534-5.693-16.892-4.43-16.16-4.285-26.029-16.587z" style="fill:#5ab532;fill-opacity:1;fill-rule:evenodd;stroke:#000;stroke-width:.86896831;stroke-linecap:butt;stroke-linejoin:miter;stroke-miterlimit:4;stroke-dasharray:none;stroke-opacity:1" transform="translate(-2631.98 -1203.108) scale(4.10334)"/><path d="M681.447 363.328c16.302 8.429 16.718 43.337 30.113 69.092 11.038 26.709 49.353-27.338 49.294 15.703-15.636-21.25-26.266 10.626-48.685-3.229 11.171 8.266 46.958 5.39 24.339 22.08 3.594-16.037-19.716-3.562-26.647-13.233 2.362 8.821-9.292 4.362-11.35 15.224-14.574-7.797 5.367-14.954 2.747-21.825-3.998 19.928-25.447-1.762-30.999 9.475-.468-28.345 29.152 4.796 27.14-21.081-1.093-14.067-13.262-53.228-15.952-72.206z" style="fill:#e20909;fill-opacity:1;fill-rule:evenodd;stroke:#000;stroke-width:.86896831;stroke-linecap:butt;stroke-linejoin:miter;stroke-miterlimit:4;stroke-dasharray:none;stroke-opacity:1" transform="translate(-2631.98 -1203.108) scale(4.10334)"/><path d="M680.512 357.275c-1.043 6.116-6.803 15.26-12.49 20.198l21.312 4.819 12.582-13.475c-9.295-2.429-16.483-7.38-21.404-11.542z" style="fill:#5ab532;fill-opacity:1;fill-rule:evenodd;stroke:#000;stroke-width:.86896831;stroke-linecap:butt;stroke-linejoin:miter;stroke-miterlimit:4;stroke-dasharray:none;stroke-opacity:1" transform="translate(-2631.98 -1203.108) scale(4.10334)"/><path d="M676.79 342.381c.17 2.953-2.949 10.903-9.786 15.352l16.122 5.423 9.763-11.331c-8.79-1.204-13.058-5.3-16.1-9.444z" style="fill:#5ab532;fill-opacity:1;fill-rule:evenodd;stroke:#000;stroke-width:.86896831;stroke-linecap:butt;stroke-linejoin:miter;stroke-miterlimit:4;stroke-dasharray:none;stroke-opacity:1" transform="translate(-2631.98 -1203.108) scale(4.10334)"/><path d="M672.06 328.374c-.945 4.637-.96 11.248-5.856 15.415l12.096 4.735 7.654-10.43c-5.266-.128-9.523-5.607-13.893-9.72z" style="fill:#5ab532;fill-opacity:1;fill-rule:evenodd;stroke:#000;stroke-width:.86896831;stroke-linecap:butt;stroke-linejoin:miter;stroke-miterlimit:4;stroke-dasharray:none;stroke-opacity:1" transform="translate(-2631.98 -1203.108) scale(4.10334)"/><path d="M668.484 314.132c.218 5.798-2.382 8.189-6.207 12.355l10.961 6.273c2.247-3.238 4.313-7.145 6.299-11.355-4.184-1.953-6.892-1.558-11.053-7.273z" style="fill:#5ab532;fill-opacity:1;fill-rule:evenodd;stroke:#000;stroke-width:.86896831;stroke-linecap:butt;stroke-linejoin:miter;stroke-miterlimit:4;stroke-dasharray:none;stroke-opacity:1" transform="translate(-2631.98 -1203.108) scale(4.10334)"/><path d="M744.482 294.387c-3.754 8.587-48.744 26.07-4.482 68.613-.837 5.996 1.597 16.713-20 40l-7.588 1.035c1.259-14.857-5.364-15.579-9.437-13.856-1.901.804-3.247 2.14-2.975 2.821 1.383.222 3.443 6.845-1.377 7.153.7 3.054-1.903 2.516 3.677 8.488l11.012 27.14C724.14 431.374 727.31 429.178 740 418l-3.364 10c7.72-2.934 12.52-12.684 18.364-20l-.259 10.86c6.395-6.188 9.287-13.252 13.106-20.084l.083 10c11.485-9.64 10.719-22.782 13.188-35-33.023-28.402 7.67-39.993 6.844-40.776l.045-39.05-43.525.437zM685 403c-5.045-7.284-20.528.492-12.412 14.018.888-5.977 7.078-6.887 9.482-5.913-9.947 2.86-8.313 13.683-4.465 19.116 3.391-8.939 7.675-7.573 9.983-7.997-4.878.056-19.138 20.067 9.741 19.74 2.522-4.14.388-7.35-.259-10.859-10.293 1.176-10.301-4.73-7.588-9.399-5.103-3.78-3.773-8.333-2.412-10-2.953-2.917-3.946-6.479-2.07-8.706z" style="fill:#000;fill-opacity:1;fill-rule:evenodd;stroke:#000;stroke-width:1px;stroke-linecap:butt;stroke-linejoin:miter;stroke-opacity:1" transform="translate(-2631.98 -1203.108) scale(4.10334)"/><path d="m694.447 428.884 11.33-.884c-5.22-6.156-6.971-6.132-12.02-7.583.77-2.604 3.685-1.882 7.537-1.64-1.85-6.473-6.718-7.27-9.964-8.316.742-2.371 4.405-1.054 7.894-.908-2.428-4.126-5.418-6.565-9.224-6.553 2.058-3.791 5.075-4.247 9.177-4.634 1.796-2.05.597-2.96-.73-5.625-4.365-1.068-7.682.369-8.447 5.259-.174 1.115.45 3.526-.012 4.658-.316.773-1.729.076-2.4 1.035-.937 1.34-2.94 3.087.975 7.274-1.572 4.788-.586 8.563 2.778 10.125-2.09 3.722-2.616 6.973 3.106 7.792z" style="fill:#000;fill-opacity:1;fill-rule:evenodd;stroke:#000;stroke-width:1px;stroke-linecap:butt;stroke-linejoin:miter;stroke-opacity:1" transform="translate(-2631.98 -1203.108) scale(4.10334)"/><g style="display:inline"><path style="fill:url(#b);fill-opacity:1" d="M1.5 1.5v458.868c0 166.31 134.315 301.132 300 301.132s300-134.821 300-301.132V1.5H1.5z"/></g><g style="display:inline"><path style="fill:none;fill-opacity:1;stroke:#000;stroke-width:3;stroke-miterlimit:4;stroke-dasharray:none;stroke-opacity:1" d="M1.5 1.5v458.868c0 166.31 134.315 301.132 300 301.132s300-134.821 300-301.132V1.5H1.5z"/></g></svg>
